X: 3346
T: Ottemandsdans
B:[[Notböcker/Melodier til gamle danske Almuedanse for Violin solo]]
O:Danmark
Z:Søren Bak Vestergaard
M: 2/4
L: 1/16
K: G
c2Bc edBd|c2Bc BdgB|c2Bc edBd|(cA)FA G2 z2:|\
|:!downbow!g2fg afdf|g2a2b2 z2|g2fg afdf|(gf)ge d2B2|\
c2Bc edBd|c2Bc BdgB|c2Bc edBd|(cA)FA G2 z2:|
(:musicend:)
Sidste del spilles fire gange
(:music:)
